svgs/light/box-ballot.svg

<svg xmlns="http://www.w3.org/2000/svg" viewBox="0 0 576 512"><!--! Font Awesome Pro 6.6.0 by @fontawesome - https://fontawesome.com License - https://fontawesome.com/license (Commercial License) Copyright 2024 Fonticons, Inc. --><path d="M160 32l0 192 256 0 0-192L160 32zm-32 0c0-17.7 14.3-32 32-32L416 0c17.7 0 32 14.3 32 32l0 192c0 17.7-14.3 32-32 32l-256 0c-17.7 0-32-14.3-32-32l0-192zM48 160l48 0 0 32-48 0c-8.8 0-16 7.2-16 16l0 112 512 0 0-112c0-8.8-7.2-16-16-16l-48 0 0-32 48 0c26.5 0 48 21.5 48 48l0 112 0 16 0 16 0 112c0 26.5-21.5 48-48 48L48 512c-26.5 0-48-21.5-48-48L0 352l0-16 0-16L0 208c0-26.5 21.5-48 48-48zM544 352L32 352l0 112c0 8.8 7.2 16 16 16l480 0c8.8 0 16-7.2 16-16l0-112z"/></svg>

<svg xmlns="http://www.w3.org/2000/svg" viewBox="0 0 576 512"><!--! Font Awesome Pro 6.4.0 by @fontawesome - https://fontawesome.com License - https://fontawesome.com/license (Commercial License) Copyright 2023 Fonticons, Inc. --><path d="M160 32V224H416V32H160zm-32 0c0-17.7 14.3-32 32-32H416c17.7 0 32 14.3 32 32V224c0 17.7-14.3 32-32 32H160c-17.7 0-32-14.3-32-32V32zM48 160H96v32H48c-8.8 0-16 7.2-16 16V320H544V208c0-8.8-7.2-16-16-16H480V160h48c26.5 0 48 21.5 48 48V320v16 16V464c0 26.5-21.5 48-48 48H48c-26.5 0-48-21.5-48-48V352 336 320 208c0-26.5 21.5-48 48-48zM544 352H32V464c0 8.8 7.2 16 16 16H528c8.8 0 16-7.2 16-16V352z"/></svg>
